!!!COM: Beethoven, Ludwig van
!!!CDT: 1770///-1827///
!!!OTL: String Quartet No. 2 in G Major, Op. 18, No. 2
!!!OPS: Op. 18
!!!ONM: No. 2
!!!OMV: Mvmt. 2
!!!OMD: Adagio cantabile
**kern	**dynam	**kern	**dynam	**kern	**dynam	**kern	**dynam
*staff4	*staff4	*staff3	*staff3	*staff2	*staff2	*staff1	*staff1
*Icello	*Icello	*Iviola	*Iviola	*Ivioln	*Ivioln	*Ivioln	*Ivioln
*>[A,B,B,C,C,D]	*>[A,B,B,C,C,D]	*>[A,B,B,C,C,D]	*>[A,B,B,C,C,D]	*>[A,B,B,C,C,D]	*>[A,B,B,C,C,D]	*>[A,B,B,C,C,D]	*>[A,B,B,C,C,D]
*>norep[A,B,C,D]	*>norep[A,B,C,D]	*>norep[A,B,C,D]	*>norep[A,B,C,D]	*>norep[A,B,C,D]	*>norep[A,B,C,D]	*>norep[A,B,C,D]	*>norep[A,B,C,D]
*>A	*>A	*>A	*>A	*>A	*>A	*>A	*>A
*clefF4	*clefF4	*clefC3	*clefC3	*clefG2	*clefG2	*clefG2	*clefG2
*k[]	*k[]	*k[]	*k[]	*k[]	*k[]	*k[]	*k[]
*C:	*C:	*C:	*C:	*C:	*C:	*C:	*C:
*M3/4	*M3/4	*M3/4	*M3/4	*M3/4	*M3/4	*M3/4	*M3/4
*MM80	*MM80	*MM80	*MM80	*MM80	*MM80	*MM80	*MM80
4r	.	4r	.	4r	.	4g/	p
=1	=1	=1	=1	=1	=1	=1	=1
(4.CC/	p	(4.e\	p	(4.g/	p	(4.cc\	.
8EE/	.	8c\	.	8e/	.	8g/	.
8GG/L	.	8G/L	.	8c/L	.	8e/L	.
8C/J)	.	8E/J)	.	8G/J)	.	8c/J)	.
=2	=2	=2	=2	=2	=2	=2	=2
(2D\	.	(2F/	.	2G/	.	(4c/	.
.	.	.	.	.	.	4B/	.
4C/)	.	4E/)	.	4G/	.	4c/)	.
=3	=3	=3	=3	=3	=3	=3	=3
2GG/	.	(8G/L	.	(4c/	.	(4e/	.
.	.	8F#/J	.	.	.	.	.
.	.	4G/)	.	8B/)	.	8d/)	.
.	.	.	.	8r	.	8r	.
4r	.	4r	.	4r	.	8f/	.
.	.	.	.	.	.	8r	.
=4	=4	=4	=4	=4	=4	=4	=4
4.GG/	<	4.B/	<	(4.d/	<	(4.ff\	<
(8G\L	.	(8B\L	.	8f/L	.	8dd\L	.
8G#\	.	8d\	.	8f/	.	8b\	.
8A\J)	.	8c\J)	.	8e/J)	.	8cc\J)	.
=5	=5	=5	=5	=5	=5	=5	=5
4F\	p	(4A/	p	(2A/	p	4d/	p
(4DD/	.	4F/)	.	.	.	[4a/	.
4GG/)	.	4F/	.	4B/)	.	16a/LL]	.
.	.	.	.	.	.	(32g/L	.
.	.	.	.	.	.	32f/	.
.	.	.	.	.	.	32e/	.
.	.	.	.	.	.	32d/	.
.	.	.	.	.	.	32c/	.
.	.	.	.	.	.	32B/JJJ)	.
=6	=6	=6	=6	=6	=6	=6	=6
2CC/	.	(8.F/L	.	(4B/	.	(4d/	.
.	.	32G/LL	.	.	.	.	.
.	.	32F/JJJ)	.	.	.	.	.
.	.	8E/	.	8G/)	.	8c/)	.
.	.	8r	.	8r	.	8r	.
4r	.	4r	.	4r	.	(16c/LL	.
.	.	.	.	.	.	16e/	.
.	.	.	.	.	.	16g/	.
.	.	.	.	.	.	16cc/JJ)	.
=7	=7	=7	=7	=7	=7	=7	=7
4.C/	.	4.c\	.	4.G/ 4.e/	.	[4ee\	.
.	.	.	.	.	.	(32ee\LLL]	.
.	.	.	.	.	.	32dd\	.
.	.	.	.	.	.	32cc\	.
.	.	.	.	.	.	32b\	.
8r	.	8r	.	8r	.	32cc\	.
.	.	.	.	.	.	32dd\	.
.	.	.	.	.	.	32ee\	.
.	.	.	.	.	.	32ff\JJJ)	.
4r	.	4r	.	4r	.	(32gg\LLL	.
.	.	.	.	.	.	32ff#\	.
.	.	.	.	.	.	32aa\	.
.	.	.	.	.	.	32gg\	.
.	.	.	.	.	.	32ffn\	.
.	.	.	.	.	.	32ee\	.
.	.	.	.	.	.	32dd\	.
.	.	.	.	.	.	32cc\JJJ)	.
=8	=8	=8	=8	=8	=8	=8	=8
(8C\L	.	(8G/L	.	(8e/L	.	(4ee\	.
8E\J	.	8c/J	.	8g/J	.	.	.
8G\)	.	8B/)	.	8d/)	.	8dd\)	.
8r	.	8r	.	8r	.	8r	.
4r	.	4r	.	4r	.	16c/LL	.
.	.	.	.	.	.	16e/	.
.	.	.	.	.	.	16g/	.
.	.	.	.	.	.	16cc/JJ	.
=9	=9	=9	=9	=9	=9	=9	=9
4.C/	.	4.c\	.	4.G/ 4.e/	.	[4ee\	.
.	.	.	.	.	.	(32ee\LLL]	.
.	.	.	.	.	.	32cc\	.
.	.	.	.	.	.	32gg\	.
.	.	.	.	.	.	32ff#\)	.
8r	.	8r	.	8r	.	(32gg\	.
.	.	.	.	.	.	32ee\	.
.	.	.	.	.	.	32ccc\	.
.	.	.	.	.	.	32bb\JJJ)	.
4r	.	4r	.	4r	.	(32ccc\LLL	.
.	.	.	.	.	.	32gg\)	.
.	.	.	.	.	.	(32eee\	.
.	.	.	.	.	.	32ccc\	.
.	.	.	.	.	.	32gg\	.
.	.	.	.	.	.	32ee\	.
.	.	.	.	.	.	32dd\	.
.	.	.	.	.	.	32cc\JJJ)	.
=10	=10	=10	=10	=10	=10	=10	=10
(8C\L	.	(8G/L	.	(8e/L	.	8ee\L	.
8E\	.	8c/	.	8g/	.	(32ee\LL	.
.	.	.	.	.	.	32ff\	.
.	.	.	.	.	.	32ff#\	.
.	.	.	.	.	.	32gg\JJJ)	.
8G\J)	.	8B/J)	.	8d/J)	.	8dd\L	.
8r	.	(8d/L	.	8r	.	8dd\J	.
4r	.	8B/	.	4r	.	4r	.
.	.	8G/J)	.	.	.	.	.
=11	=11	=11	=11	=11	=11	=11	=11
(4C/	<	(8A/L	.	(8f#/L	<	4.dd\	.
.	.	16.F#/L	.	16.a/L	.	.	.
.	.	32D/JJk)	.	32f#/JJk)	>	.	.
4BB/)	>	4G/	.	4b\	.	.	.
.	.	.	.	.	.	(16.ee\LL	.
.	.	.	.	.	.	32dd\JJk)	.
4r	.	4r	.	4r	.	(16.gg\LL	.
.	.	.	.	.	.	32dd\k)	.
.	.	.	.	.	.	(16.bb\	.
.	.	.	.	.	.	32dd\JJk)	.
=12	=12	=12	=12	=12	=12	=12	=12
(4C/	.	(8A/L	.	(8f#/L	.	4.dd\	.
.	.	16.F#/L	.	16.a/L	.	.	.
.	.	32D/JJk)	.	32f#/JJk)	.	.	.
4BB/)	.	8G/	.	8b\	.	.	.
.	.	4G/	.	(4d/	.	(16.ee\LL	.
.	.	.	.	.	.	32dd\JJk)	.
4BB/	.	.	.	.	.	(16.gg\LL	.
.	.	.	.	.	.	32dd\k)	.
.	.	8G/	.	8d#/)	.	(16.bb\	.
.	.	.	.	.	.	32dd#\JJk)	.
=13	=13	=13	=13	=13	=13	=13	=13
(8.C/L	<	(16G/LL	<	(8.e/L	<	(32ff#\LLL	<
.	.	.	.	.	.	32ee\	.
.	.	16A-/	.	.	.	32dd\	.
.	.	.	.	.	.	32cc\JJJ	.
.	.	16An/	.	.	.	32b\LLL	.
.	.	.	.	.	.	32a\)	.
16C#/Jk)	.	16B-/JJ)	.	16g/Jk)	.	32ee'\	.
.	.	.	.	.	.	32ee'\JJJ	.
4D\	.	8Bn/L	.	8g/L	.	(8ee/L	.
.	.	(8B/J	.	(8d/J	.	8g/J)	.
4DD/	.	8A/L)	.	8c/L)	.	8g/	.
.	.	8A/J	.	8c/J	.	16ee/LK)	.
.	.	.	.	.	.	32r	.
.	.	.	.	.	.	32f#/Jkk	.
=14	=14	=14	=14	=14	=14	=14	=14
4.GG/	.	8r	.	(8.c/L	.	(4a/	.
.	.	8F#/L	.	.	.	.	.
.	.	.	.	32d/LL	.	.	.
.	.	.	.	32c/JJJ)	.	.	.
.	.	8G/J	.	4B/	.	8g/)	.
(8G\L	.	8r	.	.	.	8r	.
8B\	.	4r	.	4r	.	(8g'/L	.
8d\J)	.	.	.	.	.	8g'/J)	.
=15	=15	=15	=15	=15	=15	=15	=15
(4.f\	.	4.d\	<	4.g/	.	(4.b\	.
8e\L	<	(8c\L	.	8g/L	<	8cc\L	<
8B\	.	8f\)	.	(8.g/	.	8dd\	.
16.c\L	>	(16.e\L	>	.	.	16.ee\L	>
.	.	.	.	16cc/Jk)	>	.	.
32e\JJk)	.	32g\JJk)	.	.	.	32cc\JJk)	.
=16	=16	=16	=16	=16	=16	=16	=16
(16g\LL	.	8g/L	.	(4cc\	.	(4ee\	.
16f#\	.	.	.	.	.	.	.
16g\	.	8G/	.	.	.	.	.
16f#\JJ	.	.	.	.	.	.	.
8g\)	.	8G/J	.	8b\)	.	8dd\)	.
(8GG/L	.	(8G/L	.	8r	.	8r	.
8BB/	.	8B/	.	(8g'/L	.	(8gg'\L	.
8D/J)	.	8d/J)	.	8g'/J)	.	8gg'\J)	.
=17	=17	=17	=17	=17	=17	=17	=17
4.Fn\	.	4.G\ 4.g\	.	4.b\	.	4.bb\	.
(8E\L	<	8G\L 8g\	<	(8cc\L	<	(8ccc\L	<
8BB\	.	8G\ 8f\	.	8dd\	.	8ddd\	.
8C\J)	.	8G\J 8e\	.	16.ee\L	.	16.eee\L	.
.	.	.	.	32cc\JJk)	.	32ccc\JJk)	.
=18	=18	=18	=18	=18	=18	=18	=18
2GG/	.	2G/ 2d/	.	[4ff\	.	[4fff\	.
.	.	.	.	16ff\LL]	.	16fff\LL]	.
.	.	.	.	(16dd\	.	(16ddd\	.
.	.	.	.	16b\	.	16bb\	.
.	.	.	.	16g\JJ	.	16gg\JJ	.
4r	.	4r	.	16a-\LL	.	16aa-\LL	.
.	.	.	.	16an\	.	16aan\	.
.	.	.	.	16b-\	.	16bb-\	.
.	.	.	.	16bn\JJ)	.	16bbn\JJ)	.
=19	=19	=19	=19	=19	=19	=19	=19
4.C/	.	4.C/ 4.c/	.	8cc\	.	(4.ccc\	.
.	.	.	.	4G/ 4e/	.	.	.
(8C'/	.	(8C'/L 8c'/	.	(8G'/L 8e'/	.	8gg\	.
8C'/L	.	8C'/ 8c'/	.	8G'/ 8e'/	.	8ee\L	.
8C'/J)	.	8C'/J) 8c'/	.	8G'/J) 8e'/	.	8cc\J)	.
=20	=20	=20	=20	=20	=20	=20	=20
4.C/	.	4.C/ 4.c/	.	8r	.	(4.ccc\	.
.	.	.	.	4G/ 4e/	.	.	.
(8C'/	.	(8C'/L 8c'/	.	(8G'/L 8e'/	.	8gg\	.
8C'/L	.	8C'/ 8c'/	.	8G'/ 8e'/	.	8ee\L	.
8C'/J)	.	8C'/J) 8c'/	.	8G'/J) 8e'/	.	8cc\J)	.
=21	=21	=21	=21	=21	=21	=21	=21
4AA/	<	4C/ 4c/	<	4f/	<	4ccc\	<
4AA/	.	4C/ 4c/	.	4f/	.	4ddd\	.
4AA-/	.	4C/ 4c/	.	4g-/	.	4ee-\ 4eee-\	.
=22	=22	=22	=22	=22	=22	=22	=22
2GG/	.	8C/L 8c/	.	8G/L 8g/	.	[4een\ [4eeen\	.
.	.	(8E/J	.	(8G/J	.	.	.
.	.	8G/L	.	8c/L	.	32ee\LLL] 32eee\]	.
.	.	.	.	.	.	(32eee-\	.
.	.	.	.	.	.	32fff\	.
.	.	.	.	.	.	32eeen\	.
.	.	8c/J	.	8e/J	.	32ddd\	.
.	.	.	.	.	.	32ccc\	.
.	.	.	.	.	.	32bb\	.
.	.	.	.	.	.	32aa\JJJ)	.
4GG/	.	8B/L	.	8f/L	.	(32gg\LLL	.
.	.	.	.	.	.	32gg#\	.
.	.	.	.	.	.	32bb\	.
.	.	.	.	.	.	32aa\	.
.	.	8F/J)	.	8B/J)	.	32ggn\	.
.	.	.	.	.	.	32ff\	.
.	.	.	.	.	.	32ee\	.
.	.	.	.	.	.	32dd\JJJ)	.
=23	=23	=23	=23	=23	=23	=23	=23
4C/	pp	4E/	pp	4c/	pp	4cc\	pp
4r	.	4r	.	4r	.	4r	.
(16F'\LL	.	(16G'/LL	.	(16d'/LL	.	(16b'/LL	.
16F'\	.	16G'/	.	16d'/	.	16b'/	.
16F'\	.	16G'/	.	16c'/	.	16a'/	.
16F'\JJ)	.	16G'/JJ)	.	16B'/JJ)	.	16g'/JJ)	.
=24	=24	=24	=24	=24	=24	=24	=24
4E\	.	4G/	.	4c/	.	4cc\	.
4r	.	4r	.	4r	.	4r	.
(16BB'/LL	.	(16d'\LL	.	(16G'/LL 16f'/	.	(16g'/LL	.
16BB'/	.	16d'\	.	16G'/ 16f'/	.	16g'/	.
16AA'/	.	16c'\	.	16G'/ 16f'/	.	16g'/	.
16GG'/JJ)	.	16B'\JJ)	.	16G'/JJ) 16f'/	.	16g'/JJ)	.
=25	=25	=25	=25	=25	=25	=25	=25
8C/	.	8c\	.	8G/ 8e/	.	8g/	.
8r	.	8r	.	8r	.	8r	.
4r	.	4r	.	4r	.	4r	.
8CC/	.	8G/	.	8c/	.	8e/	.
8r	.	8r	.	8r	.	8r	.
=26	=26	=26	=26	=26	=26	=26	=26
4CC/	.	4E/	.	4G/	.	4c/	.
4r	.	4r	.	4r	.	4r	.
=	=	=	=	=	=	=	=
*k[b-]	*k[b-]	*k[b-]	*k[b-]	*k[b-]	*k[b-]	*k[b-]	*k[b-]
*M2/4	*M2/4	*M2/4	*M2/4	*M2/4	*M2/4	*M2/4	*M2/4
*	*	*	*	*	*	*MM120	*MM120
4r	.	4r	.	4r	.	16cc'\LL	pp
.	.	.	.	.	.	16cc'\	.
.	.	.	.	.	.	16b-'\	.
.	.	.	.	.	.	16a'\JJ	.
=27	=27	=27	=27	=27	=27	=27	=27
2r	.	2r	.	2r	.	4dd\	.
.	.	.	.	.	.	16b-/LL	.
.	.	.	.	.	.	16b-/	.
.	.	.	.	.	.	16a/	.
.	.	.	.	.	.	16g/JJ	.
=28	=28	=28	=28	=28	=28	=28	=28
4r	.	4r	.	4r	.	4cc\	.
=!|:	=!|:	=!|:	=!|:	=!|:	=!|:	=!|:	=!|:
*>B	*>B	*>B	*>B	*>B	*>B	*>B	*>B
4r	.	4r	.	4r	p	16cc'\LL	.
.	.	.	.	.	.	(16cc\	.
.	.	.	.	.	.	16b-\	.
.	.	.	.	.	.	16a\JJ)	.
=29	=29	=29	=29	=29	=29	=29	=29
8F\	p	16c'/LL	p	[2c/	.	16a'/LL	.
.	.	(16c/	.	.	.	(16a/	.
8r	.	16B-/	.	.	.	16g/	.
.	.	16A/JJ)	.	.	.	16f/JJ)	.
8F\	.	16A'/LL	.	.	.	16f'/LL	.
.	.	(16A/	.	.	.	(16f/	.
8r	.	16G/	.	.	.	16e/)	.
.	.	16F/JJ)	.	.	.	16f'/JJ	.
=30	=30	=30	=30	=30	=30	=30	=30
8C/	.	4E/	.	4c/]	.	(16f#/LL	.
.	.	.	.	.	.	16g/)	.
4r	.	.	.	.	.	16g'/	.
.	.	.	.	.	.	16g'/JJ	.
.	.	4r	.	4r	.	16dd'\LL	.
.	.	.	.	.	.	(16dd\	.
8r	.	.	.	.	.	16cc\	.
.	.	.	.	.	.	16b-\JJ)	.
=31	=31	=31	=31	=31	=31	=31	=31
8CC/	.	16d'\LL	.	[2c/	.	16b-'/LL	.
.	.	(16d\	.	.	.	(16b-/	.
8r	.	16c\	.	.	.	16a/)	.
.	.	16B-\JJ)	.	.	.	16g'/JJ	.
8C\ 8A\	.	16B-'/LL	.	.	.	16g'/LL	.
.	.	(16B-/	.	.	.	(16g/	.
8r	.	16A/	.	.	.	16f#/)	.
.	.	16G/JJ)	.	.	.	16g'/JJ	.
=32	=32	=32	=32	=32	=32	=32	=32
8FF/	.	4F/	.	4c/]	.	(16g#/LL	.
.	.	.	.	.	.	16a/)	.
8r	.	.	.	.	.	16a'/	.
.	.	.	.	.	.	16a'/JJ	.
8F\	.	[4c\	.	16a'/LL	.	16ff'\LL	.
.	.	.	.	(16a/	.	(16ff\	.
8r	.	.	.	16g/	.	16gg\	.
.	.	.	.	16f/JJ)	.	16aa\JJ)	.
=33	=33	=33	=33	=33	=33	=33	=33
8C/	.	4c\]	.	16e'/LL	.	16gg'\LL	.
.	.	.	.	(16e/	.	(16gg\	.
8r	.	.	.	16f/	.	16ff\	.
.	.	.	.	16g/JJ)	.	16ee\JJ)	.
4GG/	.	4Bn/	.	16f'/LL	.	16dd'\LL	.
.	.	.	.	(16f/	.	(16dd\	.
.	.	.	.	16e/	.	16ee\	.
.	.	.	.	16d/JJ)	.	16ff\JJ)	.
=34	=34	=34	=34	=34	=34	=34	=34
8C/	f	4c\	f	16c'/LL	f	16ee'\LL	f
.	.	.	.	(16c/	.	(16ee\	.
8r	.	.	.	16d/	.	16dd\	.
.	.	.	.	16e/JJ)	.	16cc\JJ)	.
16F'\LL	.	16A'/LL	.	16d'/LL	.	16ff'\LL	.
(16F\	.	(16A/	.	(16d/	.	(16ff\	.
16E\	.	16G/	.	16e/	.	16gg\	.
16D\JJ)	.	16F/JJ)	.	16f/JJ)	.	16aa\JJ)	.
=35	=35	=35	=35	=35	=35	=35	=35
8G\	.	16c'/LL	.	16e'/LL	.	16gg'\LL	.
.	.	(16c/	.	(16e/	.	(16gg\	.
8r	.	16Bn/	.	16d/	.	16ff\	.
.	.	16c/JJ)	.	16c/JJ)	.	16ee\JJ)	.
16BBn'/LL	.	16G/LL	.	16f/LL	.	16dd'\LL	.
(16BB/	.	16G/	.	16f/	.	(16dd\	.
16AA/	.	16G/	.	16f/	.	16gg\	.
16GG/JJ)	.	16G/JJ	.	16f/JJ	.	16bn\JJ	.
=36	=36	=36	=36	=36	=36	=36	=36
4C/	.	4G/	.	4e/	.	4cc\)	.
=:|!|:	=:|!|:	=:|!|:	=:|!|:	=:|!|:	=:|!|:	=:|!|:	=:|!|:
*>C	*>C	*>C	*>C	*>C	*>C	*>C	*>C
4r	.	4r	.	16ee-'\LL	p	4r	.
.	.	.	.	(16ee-\	.	.	.
.	.	.	.	16dd\	.	.	.
.	.	.	.	16cc\JJ)	.	.	.
=37	=37	=37	=37	=37	=37	=37	=37
4r	p	16a'\LL	p	16cc'\LL	.	4r	p
.	.	(16a\	.	(16cc\	.	.	.
.	.	16g\	.	16b-\	.	.	.
.	.	16f#\JJ)	.	16a\JJ)	.	.	.
16e-'\LL	.	16cc'\LL	.	16a'/LL	.	16ff#'\LL	.
(16e-\	.	(16cc\	.	(16a/	.	(16ff#\	.
16d\	.	16b-\	.	16b-/	.	16gg\	.
16c\JJ)	.	16a\JJ)	.	16cc/JJ)	.	16aa\JJ)	.
=38	=38	=38	=38	=38	=38	=38	=38
16B-'\LL	.	16d'\LL	.	8dd\	.	16bb-'\LL	.
(16B-\	.	(16d\	.	.	.	(16bb-\	.
16A\	.	16c\	.	8r	.	16ccc\	.
16G\JJ)	.	16B-\JJ)	.	.	.	16ddd\JJ)	.
4r	.	4r	.	16dd'\LL	.	4r	.
.	.	.	.	(16dd\	.	.	.
.	.	.	.	16cc\	.	.	.
.	.	.	.	16b-\JJ)	.	.	.
=39	=39	=39	=39	=39	=39	=39	=39
4r	.	16g'\LL	.	16b-'/LL	.	4r	.
.	.	(16g\	.	(16b-/	.	.	.
.	.	16fn\	.	16a/	.	.	.
.	.	16e\JJ)	.	16g/JJ)	.	.	.
16d-'\LL	.	16b-'\LL	.	16g'/LL	.	16ee'\LL	.
(16d-\	.	(16b-\	.	(16g/	.	(16ee\	.
16c\	.	16a\	.	16a/	.	16ff\	.
16B-\JJ)	.	16g\JJ)	.	16b-/JJ)	.	16gg\JJ)	.
=40	=40	=40	=40	=40	=40	=40	=40
16A'\LL	.	16c'/LL	.	8cc\	.	16aa'\LL	.
(16A\	.	(16c/	.	.	.	(16aa\	.
16G\	.	16B-/	.	8r	.	16bb-\	.
16F\JJ)	.	16A/JJ)	.	.	.	16ccc\JJ)	.
8C\L	<	16F'/LL	<	16a'/LL	<	16aa'\LL	<
.	.	(16F/	.	(16a/	.	(16aa\	.
8c\J	.	16G/	.	16g/	.	16gg\	.
.	.	16A/JJ)	.	16f/JJ)	.	16ff\JJ)	.
=41	=41	=41	=41	=41	=41	=41	=41
8C\L	.	16E'/LL	.	16b-'/LL	.	16bb-'\LL	.
.	.	(16E/	.	(16b-/	.	(16bb-\	.
8c\J	.	16F/	.	16a/	.	16aa\	.
.	.	16G/JJ)	.	16g/JJ)	.	16gg\JJ)	.
8C\L	.	16F'/LL	.	16a'/LL	.	16aa'\LL	.
.	.	(16F/	.	(16a/	.	(16aa\	.
8c\J	.	16G/	.	16g/	.	16gg\	.
.	.	16A/JJ)	.	16f/JJ)	.	16ff\JJ)	.
=42	=42	=42	=42	=42	=42	=42	=42
8C\L	.	4B-/	.	16e'/LL	.	16ee'\LL	.
.	.	.	.	(16e/	.	(16ee\	.
8c\J	.	.	.	16d/	.	16dd\	.
.	.	.	.	16c/JJ)	.	16cc\JJ)	.
16FF'/LL	.	8C/L	.	16a'/LL	.	16aa'\LL	.
(16FF/	.	.	.	(16a/	.	(16aa\	.
16GG/	.	8c/J	.	16g/	.	16gg\	.
16AA/JJ)	.	.	.	16f/JJ)	.	16ff\JJ)	.
=43	=43	=43	=43	=43	=43	=43	=43
16EE'/LL	.	8C/L	.	16b-'/LL	.	16bb-'\LL	.
(16EE/	.	.	.	(16b-/	.	(16bb-\	.
16FF/	.	8c/J	.	16a/	.	16aa\	.
16GG/JJ)	.	.	.	16g/JJ)	.	16gg\JJ)	.
16FF'/LL	.	8C/L	.	16a'/LL	.	16aa'\LL	.
(16FF/	.	.	.	(16a/	.	(16aa\	.
16EE/	.	8c/J	.	16g/	.	16gg\	.
16FF/JJ)	.	.	.	16f/JJ)	.	16ff\JJ)	.
=44	=44	=44	=44	=44	=44	=44	=44
8CC/	.	8C/	.	4cc\	.	[2ccc\	.
8r	.	8r	.	.	.	.	.
[4c\	.	[4c\	.	16cc'\LL	.	.	.
.	.	.	.	(16cc\	.	.	.
.	.	.	.	16b-\	.	.	.
.	.	.	.	16a\JJ)	.	.	.
=45	=45	=45	=45	=45	=45	=45	=45
16c\LL]	.	2c\_	.	16a'/LL	.	2ccc\_	.
(16c\	.	.	.	(16a/	.	.	.
16B-\	.	.	.	16g/	.	.	.
16A\JJ)	.	.	.	16f/JJ)	.	.	.
16A'\LL	.	.	.	16f'/LL	.	.	.
(16A\	.	.	.	(16f/	.	.	.
16G\	.	.	.	16e/	.	.	.
16F\JJ)	.	.	.	16f/JJ)	.	.	.
=46	=46	=46	=46	=46	=46	=46	=46
4E\	.	2c\_	.	(16f#/LL	.	4ccc\]	.
.	.	.	.	16g/)	.	.	.
.	.	.	.	16g'/	.	.	.
.	.	.	.	16g'/JJ	.	.	.
4r	.	.	.	16dd'\LL	.	16ddd'\LL	.
.	.	.	.	(16dd\	.	(16ddd\	.
.	.	.	.	16cc\	.	16ccc\	.
.	.	.	.	16b-\JJ)	.	16bb-\JJ)	.
=47	=47	=47	=47	=47	=47	=47	=47
16d'\LL	.	2c\_	.	16b-'/LL	.	16bb-'\LL	.
16d\	.	.	.	(16b-/	.	(16bb-\	.
16c\	.	.	.	16a/	.	16aa\	.
16B-\JJ	.	.	.	16g/JJ)	.	16gg\JJ)	.
16B-'\LL	.	.	.	16g'/LL	.	16gg'\LL	.
16B-\	.	.	.	(16g/	.	(16gg\	.
16A\	.	.	.	16fn/)	.	16ff\)	.
16G\JJ	.	.	.	16g'/JJ	.	16gg'\JJ	.
=48	=48	=48	=48	=48	=48	=48	=48
8F\	.	8c\]	.	16a'/LL	.	(16gg#\LL	.
.	.	.	.	(16f/	.	16aa\)	.
8r	.	8r	.	16e/)	.	16aa'\	.
.	.	.	.	16e-/JJ	.	16aa'\JJ	.
4B-\	.	[4f\	.	16d'/LL	.	16bb-'\LL	.
.	.	.	.	(16dd/	.	(16bb-\	.
.	.	.	.	16cc/	.	16ccc\	.
.	.	.	.	16b-/JJ)	.	16ddd\JJ)	.
=49	=49	=49	=49	=49	=49	=49	=49
8F\	.	8f\]	.	16a'/LL	.	16ccc'\LL	.
.	.	.	.	(16a/	.	(16ccc\	.
8r	.	8r	.	16b-/	.	16bb-\	.
.	.	.	.	16cc/JJ)	.	16aa\JJ)	.
4C/	.	4e\	.	16b-'/LL	.	16ggn'\LL	.
.	.	.	.	(16b-/	.	(16gg\	.
.	.	.	.	16a/	.	16aa\	.
.	.	.	.	16g/JJ)	.	16bb-\JJ)	.
=50	=50	=50	=50	=50	=50	=50	=50
8F\	f	16f'\LL	f	16f'/LL	f	16aa'\LL	f
.	.	16f\	.	(16f/	.	(16aa\	.
8r	.	16e\	.	16g/	.	16gg\	.
.	.	&(16e-\JJ&)	.	16a/JJ)	.	16ff\JJ)	.
16BB-'/LL	.	16d'\LL	.	16b-'/LL	.	16bb-'\LL	.
(16BB-/	.	16d\	.	(16g/	.	(16bb-\	.
16AA/	.	16c\	.	16a/	.	16ccc\	.
16GG/JJ)	.	&(16B-\JJ&)	.	16b-/JJ)	.	16ddd\JJ)	.
=51	=51	=51	=51	=51	=51	=51	=51
8C/	.	16c\LL	.	16a'/LL	.	16ccc'\LL	.
.	.	16c\	.	(16a/	.	(16ccc\	.
8r	.	16c\	.	16g/	.	16bb-\	.
.	.	16c\JJ	.	16f/JJ)	.	16aa\JJ)	.
16EE'/LL	.	16C/LL 16c/	.	16b-\LL	.	16gg'\LL	.
(16EE/	.	16C/ 16c/	.	16b-\	.	(16gg\	.
16DD/	.	16C/ 16c/	.	16b-\	.	16ccc\	.
16CC/JJ	.	16C/JJ 16c/	.	16b-\JJ	.	16ee\JJ)	.
=52	=52	=52	=52	=52	=52	=52	=52
4FF/)	.	4F/	.	4a/	.	4ff\	.
=:|!	=:|!	=:|!	=:|!	=:|!	=:|!	=:|!	=:|!
*>D	*>D	*>D	*>D	*>D	*>D	*>D	*>D
4r	.	4r	.	4r	.	16aa'\LL	p
.	.	.	.	.	.	(16aa\	.
.	.	.	.	.	.	16gg\	.
.	.	.	.	.	.	16ff\JJ)	.
=53	=53	=53	=53	=53	=53	=53	=53
2r	.	4r	p	16a'/LL	p	16ff'\LL	.
.	.	.	.	(16a/	.	(16ff\	.
.	.	.	.	16g/	.	16ee\	.
.	.	.	.	16f/JJ)	.	16dd\JJ)	.
.	.	16a'\LL	.	16f'/LL	.	16dd'\LL	.
.	.	(16a\	.	(16f/	.	(16dd\	.
.	.	16g\	.	16e/	.	16cc\	.
.	.	16f\JJ)	.	16d/JJ)	.	16bn\JJ)	.
=54	=54	=54	=54	=54	=54	=54	=54
4r	p	16f'\LL	.	16d'/LL	.	16bn'/LL	.
.	.	(16f\	.	(16d/	.	(16b/	.
.	.	16e\	.	16c/	.	16a/	.
.	.	16d\JJ)	.	16Bn/JJ)	.	16g/JJ)	.
16A'\LL	.	4d\	.	4B/	.	4g/	.
(16A\	.	.	.	.	.	.	.
16G\	<	.	.	.	.	.	.
16F\JJ)	.	.	.	.	.	.	.
=55	=55	=55	=55	=55	=55	=55	=55
16F'\LL	.	8g\	<	8d/	<	8bn\	<
(16F\	.	.	.	.	.	.	.
16E\	.	8r	.	8r	.	8r	.
16D\JJ)	.	.	.	.	.	.	.
16D'/LL	.	8bn\	.	8g/	.	8dd\	.
(16D/	.	.	.	.	.	.	.
16C/	.	8r	.	8r	.	8r	.
16BBn/JJ)	.	.	.	.	.	.	.
=56	=56	=56	=56	=56	=56	=56	=56
16BBn'/LL	.	8g\	.	8dd\	.	8ff\	.
(16BB/	.	.	.	.	.	.	.
16AA/	.	8r	.	8r	.	8r	.
16GG/JJ)	.	.	.	.	.	.	.
16BB'/LL	.	8g\	.	8dd\	.	8bbn\	.
(16BB/	.	.	.	.	.	.	.
16AA/	.	8r	.	8r	.	8r	.
16GG/JJ)	.	.	.	.	.	.	.
=57	=57	=57	=57	=57	=57	=57	=57
16BBn'/LL	.	8g\	.	8ff\	.	8ddd\	.
(16BB/	.	.	.	.	.	.	.
16AA/	.	8r	.	8r	.	8r	.
16GG/JJ)	.	.	.	.	.	.	.
16BB'/LL	.	8g\	.	8dd\	.	8fff\	.
(16BB/	.	.	.	.	.	.	.
16AA/	.	8r	.	8r	.	8r	.
16GG/JJ)	.	.	.	.	.	.	.
=58	=58	=58	=58	=58	=58	=58	=58
16BBn'/LL	.	4Bn;/	.	4d;/	.	4G;/ 4f;/	.
(16BB/	.	.	.	.	.	.	.
16AA/	.	.	.	.	.	.	.
16GG/JJ)	.	.	.	.	.	.	.
=	=	=	=	=	=	=	=
*k[]	*k[]	*k[]	*k[]	*k[]	*k[]	*k[]	*k[]
*M3/4	*M3/4	*M3/4	*M3/4	*M3/4	*M3/4	*M3/4	*M3/4
*MM80	*MM80	*MM80	*MM80	*MM80	*MM80	*MM80	*MM80
4G\	p	4r	.	4r	.	4r	.
=59	=59	=59	=59	=59	=59	=59	=59
(4.c\	.	8r	p	8r	p	8r	.
.	.	(8G\L	.	(8c\L	.	(8e\L	.
.	.	8c\	.	8e\	.	8g\	.
8G\L	.	8e\	.	8g\	.	8cc\	.
8E\	.	8g\	.	8cc\	.	8ee\	.
8C\J)	.	8cc\J)	.	8ee\J)	.	8gg\J)	.
=60	=60	=60	=60	=60	=60	=60	=60
(4C/	.	2dd\	.	2ff\	.	2gg\	.
4BB/	.	.	.	.	.	.	.
4C/)	.	4c\	.	4e/	.	4g/	.
=61	=61	=61	=61	=61	=61	=61	=61
(4E\	.	(4B-/	.	(4c#/	.	4.g/	.
8D\)	.	8Bn/)	.	8f/)	.	.	.
8r	.	(8G/L	.	8r	.	8r	.
8r	.	8B/	.	4r	.	4r	.
8D\	.	8d/J)	.	.	.	.	.
=62	=62	=62	=62	=62	=62	=62	=62
(4.F\	<	(4.f\	<	4r	.	8r	.
.	.	.	.	.	.	8b\	.
.	.	.	.	8r	.	(8aa-\L	<
8D/L	.	8B\L	.	(4f/	<	[8gg\J)	.
8BB/	.	8d\	.	.	.	(8.gg\L]	.
8C/J)	.	8c\J)	.	8e/)	.	.	.
.	.	.	.	.	.	32ff\LL	.
.	.	.	.	.	.	32ee\JJJ)	.
=63	=63	=63	=63	=63	=63	=63	=63
4FF/	.	(4F/	.	(4an/	.	(8ee\L	.
.	.	.	.	.	.	8dd\	.
*clefC4	*clefG2	*	*	*	*	*	*
[4a\	.	4D/	.	4f/)	.	8ff\	.
.	.	.	.	.	.	[8aa\J	.
(16a\LL]	.	4G/)	.	(8B/L	.	8aa\L])	.
32g\L	.	.	.	.	.	.	.
32f\	.	.	.	.	.	.	.
32e\	.	.	.	8f/J)	.	[8b\J	.
32d\	.	.	.	.	.	.	.
32c\	.	.	.	.	.	.	.
32B\JJJ)	.	.	.	.	.	.	.
=64	=64	=64	=64	=64	=64	=64	=64
(4d\	.	4.C/	.	(4f/	p	(32b\LLL]	.
.	.	.	.	.	.	32cc\	.
.	.	.	.	.	.	32dd\	.
.	.	.	.	.	.	32ee\	.
.	.	.	.	.	.	32ff\	.
.	.	.	.	.	.	32g\	.
.	.	.	.	.	.	32a\	.
.	.	.	.	.	.	32b\JJJ)	.
8c\)	.	.	.	8e/)	.	8cc\	.
8r	.	8r	.	8r	.	8r	.
4r	.	4r	.	4r	.	(16c/LL	.
.	.	.	.	.	.	16e/	.
.	.	.	.	.	.	16g/	.
.	.	.	.	.	.	16cc/JJ)	.
=65	=65	=65	=65	=65	=65	=65	=65
*clefF4	*clefF4	*	*	*	*	*	*
(16CC/LL	p	4.c\	p	4.G/ 4.e/	.	[4ee\	.
16C/	.	.	.	.	.	.	.
16E/	.	.	.	.	.	.	.
16G/JJ)	.	.	.	.	.	.	.
4c\	.	.	.	.	.	(32ee\LLL]	.
.	.	.	.	.	.	32dd\	.
.	.	.	.	.	.	32cc\	.
.	.	.	.	.	.	32b\	.
.	.	8r	.	8r	.	32cc\	.
.	.	.	.	.	.	32dd\	.
.	.	.	.	.	.	32ee\	.
.	.	.	.	.	.	32ff\JJJ)	.
4r	.	4r	.	4r	.	(32gg\LLL	.
.	.	.	.	.	.	32ff#\	.
.	.	.	.	.	.	32aa\	.
.	.	.	.	.	.	32gg\	.
.	.	.	.	.	.	32ffn\	.
.	.	.	.	.	.	32ee\	.
.	.	.	.	.	.	32dd\	.
.	.	.	.	.	.	32cc\JJJ)	.
=66	=66	=66	=66	=66	=66	=66	=66
(8C\L	.	(8G/L	.	(8e/L	.	(8.ee\L	.
8E\	.	8c/	.	8g/	.	.	.
.	.	.	.	.	.	32ff\LL	.
.	.	.	.	.	.	32ee\JJJ)	.
8G\J)	.	8B/J)	.	8d/J)	.	8dd\	.
8r	.	8r	.	8r	.	8r	.
4r	.	4r	.	4r	.	(32G/LLL	.
.	.	.	.	.	.	32c/	.
.	.	.	.	.	.	32e/	.
.	.	.	.	.	.	32c/	.
.	.	.	.	.	.	32g/	.
.	.	.	.	.	.	32e/	.
.	.	.	.	.	.	32cc/	.
.	.	.	.	.	.	32g/JJJ)	.
=67	=67	=67	=67	=67	=67	=67	=67
(32CC/LLL	.	2c\	.	2G/ 2e/	.	[4ee\	.
32GG/	.	.	.	.	.	.	.
32C/	.	.	.	.	.	.	.
32GG/	.	.	.	.	.	.	.
32E/	.	.	.	.	.	.	.
32C/	.	.	.	.	.	.	.
32G/	.	.	.	.	.	.	.
32E/JJJ)	.	.	.	.	.	.	.
8c\	.	.	.	.	.	(64ee\LLLL]	.
.	.	.	.	.	.	64dd\	.
.	.	.	.	.	.	64cc\	.
.	.	.	.	.	.	64b\	.
.	.	.	.	.	.	64cc\	.
.	.	.	.	.	.	64dd\	.
.	.	.	.	.	.	64ee\	.
.	.	.	.	.	.	64ff\	.
8r	.	.	.	.	.	64aa\	.
.	.	.	.	.	.	64gg\	.
.	.	.	.	.	.	64ff\	.
.	.	.	.	.	.	64ee\	.
.	.	.	.	.	.	64ff\	.
.	.	.	.	.	.	64gg\	.
.	.	.	.	.	.	64aa\	.
.	.	.	.	.	.	64bb\JJJJ	.
4r	.	4r	.	4r	.	64ccc\LLLL	.
.	.	.	.	.	.	64bb\	.
.	.	.	.	.	.	64eee\	.
.	.	.	.	.	.	64ddd\	.
.	.	.	.	.	.	64ccc\	.
.	.	.	.	.	.	64bb\	.
.	.	.	.	.	.	64aa\	.
.	.	.	.	.	.	64gg\	.
.	.	.	.	.	.	64ff#\	.
.	.	.	.	.	.	64gg\	.
.	.	.	.	.	.	64aa\	.
.	.	.	.	.	.	64gg\	.
.	.	.	.	.	.	64ffn\	.
.	.	.	.	.	.	64ee\	.
.	.	.	.	.	.	64dd\	.
.	.	.	.	.	.	64cc\JJJJ)	.
=68	=68	=68	=68	=68	=68	=68	=68
(8C\L	.	(8G/L	.	(8e/L	.	8ee\L	.
8E\J	.	8c/	.	8g/	.	(32ee\LL	.
.	.	.	.	.	.	32ff\	.
.	.	.	.	.	.	32ff#\	.
.	.	.	.	.	.	32gg\JJJ)	.
32G\LLL)	.	8B/J)	.	8d/J)	.	8dd#\	.
(32GG\	.	.	.	.	.	.	.
32BB\	.	.	.	.	.	.	.
32D\	.	.	.	.	.	.	.
32G\	.	8r	.	8r	.	8r	.
32B\	.	.	.	.	.	.	.
32d\	.	.	.	.	.	.	.
32c\JJJ	.	.	.	.	.	.	.
32B\LLL	.	4r	.	4r	.	8ddn\L	.
32A\	.	.	.	.	.	.	.
32G\	.	.	.	.	.	.	.
32F#\	.	.	.	.	.	.	.
32G\	.	.	.	.	.	8dd\J	.
32D\	.	.	.	.	.	.	.
32BB\	.	.	.	.	.	.	.
32GG\JJJ)	.	.	.	.	.	.	.
=69	=69	=69	=69	=69	=69	=69	=69
4C/	<	8A/L	.	8f#/L	.	4.dd\	<
.	.	16.F#/L	<	16.a/L	<	.	.
.	.	32D/JJk	>	32f#/JJk	>	.	.
[4BB/	>	4G/	.	4b\	.	.	.
.	.	.	.	.	.	(16.ee\LL	>
.	.	.	.	.	.	32dd\JJk)	.
(32BB/LLL]	.	4r	.	4r	.	(16.gg\LL	.
32D/	.	.	.	.	.	.	.
32C#/	.	.	.	.	.	.	.
32D/	.	.	.	.	.	32dd\k)	.
32Cn/	.	.	.	.	.	(16.bb\	.
32BB/	.	.	.	.	.	.	.
32AA/	.	.	.	.	.	.	.
32GG/JJJ)	.	.	.	.	.	32dd\JJk)	.
=70	=70	=70	=70	=70	=70	=70	=70
4C/	<	(8A/L	.	(8f#/L	.	[4dd\	.
.	.	32F#/LL	<	32a/LL	<	.	.
.	.	32D/	>	32f#/	>	.	.
.	.	32F#/	.	32a/	.	.	.
.	.	32D/JJJ)	.	32f#/JJJ)	.	.	.
[4BB/	>	8G/	.	8b\	.	32dd\LLL]	<
.	.	.	.	.	.	32dd'\	.
.	.	.	.	.	.	32dd'\	.
.	.	.	.	.	.	32dd'\JJJ	.
.	.	4G/	.	(4d/	.	(32ee\LLL	.
.	.	.	.	.	.	32dd\)	.
.	.	.	.	.	.	32dd'\	.
.	.	.	.	.	.	32dd'\JJJ	.
(32BB/LLL]	.	.	.	.	.	(32gg\LLL	.
32D/	.	.	.	.	.	32dd\)	.
32C#/	.	.	.	.	.	32dd'\	.
32D/	.	.	.	.	.	32dd'\JJJ	.
32Cn/	.	8G/	.	8d#/)	.	(32bb\LLL	.
32BB/	.	.	.	.	.	32dd#\)	.
32AA/	.	.	.	.	.	32dd#'\	.
32GG/JJJ)	.	.	.	.	.	32dd#'\JJJ	.
=71	=71	=71	=71	=71	=71	=71	=71
(8.C/L	<	(16G/LL	<	(8.e/L	<	(32ff#\LLL	<
.	.	.	.	.	.	32ee\	.
.	.	16G#/	.	.	.	32dd\	.
.	.	.	.	.	.	32cc\	.
.	.	16A/	.	.	.	32b\	.
.	.	.	.	.	.	32a\)	.
16C#/Jk)	.	16B-/JJ)	.	16g/Jk)	.	32ee'\	.
.	.	.	.	.	.	32ee'\JJJ	.
4D\	.	8Bn/L	.	(8g/L	.	(8ee\L	.
.	.	(8B/J	.	8dn/J)	.	8g\J)	.
4DD/	.	8A/L)	.	&(8c/L&)	.	8g/	.
.	.	8A/J	.	8c/J	.	16ee\LK	.
.	.	.	.	.	.	32r	.
.	.	.	.	.	.	32f#\Jkk	.
=72	=72	=72	=72	=72	=72	=72	=72
[4GG/	.	8r	.	32r	.	(4a/	.
.	.	.	.	(32c/LLL	.	.	.
.	.	.	.	32B/	.	.	.
.	.	.	.	32c/	.	.	.
.	.	(8F#/L	.	32B/	.	.	.
.	.	.	.	32c/	.	.	.
.	.	.	.	32d/	.	.	.
.	.	.	.	32c/JJJ)	.	.	.
32GG/LLL]	.	8G/J)	.	8B/	.	8g/)	.
(32GG/	.	.	.	.	.	.	.
32BB/	.	.	.	.	.	.	.
32D/	.	.	.	.	.	.	.
32G/	.	8r	.	8r	.	8r	.
32BB/	.	.	.	.	.	.	.
32D/	.	.	.	.	.	.	.
32G/JJJ	.	.	.	.	.	.	.
32B\LLL	.	4r	.	4r	.	(8g'/L	.
32D\	.	.	.	.	.	.	.
32G\	.	.	.	.	.	.	.
32B\	.	.	.	.	.	.	.
32d\	.	.	.	.	.	8g'/J)	.
32G\	.	.	.	.	.	.	.
32B\	.	.	.	.	.	.	.
32d\JJJ)	.	.	.	.	.	.	.
=73	=73	=73	=73	=73	=73	=73	=73
(4.f\	.	(4.d\	<	(4.g/	.	(4.b\	.
8e\	<	8c\	<	8g/	.	8cc\	<
8B\L	>	8f\L	.	8g/L	.	8dd\L	>
16.c\L	.	16.e\L	>	16.g/L	>	16.ee\L	.
32e\JJk)	.	32g\JJk)	.	32cc/JJk)	.	32cc\JJk)	.
=74	=74	=74	=74	=74	=74	=74	=74
[8g\L	.	8g\L	.	(4cc\	.	(4ee\	.
(32g\LL]	.	8G\J	.	.	.	.	.
32f#\	.	.	.	.	.	.	.
32g\	.	.	.	.	.	.	.
32f#\JJJ	.	.	.	.	.	.	.
32g\LLL)	.	8G/	.	8b\)	.	8dd\)	.
(32GG\	.	.	.	.	.	.	.
32BB\	.	.	.	.	.	.	.
32D\	.	.	.	.	.	.	.
32G\	.	8r	.	8r	.	8r	.
32BB\	.	.	.	.	.	.	.
32D\	.	.	.	.	.	.	.
32G\JJJ	.	.	.	.	.	.	.
32B\LLL	.	4r	.	(8g'/L	.	(8gg\L	.
32D\	.	.	.	.	.	.	.
32G\	.	.	.	.	.	.	.
32B\	.	.	.	.	.	.	.
32d\	.	.	.	8g'/J)	.	8gg\J)	.
32G\	.	.	.	.	.	.	.
32B\	.	.	.	.	.	.	.
32d\JJJ)	.	.	.	.	.	.	.
=75	=75	=75	=75	=75	=75	=75	=75
(4.f\	<	4.g\	<	(4.dd\	<	(4.bb\	<
8e\L	.	8g\	.	8cc\	.	8ccc\	.
8B\	.	8g\L	.	8ff\L	.	8ddd\L	.
8c\J)	.	(16.g\L	.	16.ee\L	.	16.eee\L	.
.	.	32e\JJk)	.	32cc\JJk)	.	32ccc\JJk)	.
=76	=76	=76	=76	=76	=76	=76	=76
8G\	.	8d\	.	[4ff\	.	[4fff\	.
8r	.	8r	.	.	.	.	.
[4GG/	.	8G/	.	(16ff\LL]	.	(16fff\LL]	.
.	.	.	.	16dd\	.	16ddd\	.
.	.	8r	.	16b\	.	16bb\	.
.	.	.	.	16g\JJ	.	16gg\JJ	.
(32GG/LLL]	.	4r	.	16a-/LL	.	16aa-\LL	.
32FF#/	.	.	.	.	.	.	.
32GG/	.	.	.	16an/	.	16aan\	.
32FF#/	.	.	.	.	.	.	.
32GG/	.	.	.	16b-/	.	16bb-\	.
32FFn/	.	.	.	.	.	.	.
32EE/	.	.	.	16bn/JJ)	.	16bbn\JJ)	.
32DD/JJJ)	.	.	.	.	.	.	.
=77	=77	=77	=77	=77	=77	=77	=77
32CC'/LLL	.	4r	.	[2e/ [2cc/	.	(4.ccc\	.
32CC/	.	.	.	.	.	.	.
32EE/	.	.	.	.	.	.	.
32GG/	.	.	.	.	.	.	.
32C/	.	.	.	.	.	.	.
32GG/	.	.	.	.	.	.	.
32EE/	.	.	.	.	.	.	.
&(32CC/JJJ&)	.	.	.	.	.	.	.
2C/	.	32r	.	.	.	.	.
.	.	(32C/LLL	.	.	.	.	.
.	.	32E/	.	.	.	.	.
.	.	32G/	.	.	.	.	.
.	.	32c/	.	.	.	8gg\	.
.	.	32G/	.	.	.	.	.
.	.	32E/	.	.	.	.	.
.	.	32C/JJJ)	.	.	.	.	.
.	.	[4c\	.	32e/LLL] 32cc/]	.	8ee\L	.
.	.	.	.	(32c/	.	.	.
.	.	.	.	32e/	.	.	.
.	.	.	.	32g/	.	.	.
.	.	.	.	32cc/	.	8cc\J)	.
.	.	.	.	32g/	.	.	.
.	.	.	.	32e/	.	.	.
.	.	.	.	32c/JJJ)	.	.	.
=78	=78	=78	=78	=78	=78	=78	=78
32BB-'\LLL	.	4c\_	.	[2ee\	.	(4.ccc\	.
(32BB-\	.	.	.	.	.	.	.
32E\	.	.	.	.	.	.	.
32G\	.	.	.	.	.	.	.
32B-\	.	.	.	.	.	.	.
32G\	.	.	.	.	.	.	.
32E\	.	.	.	.	.	.	.
32BB-\JJJ)	.	.	.	.	.	.	.
4B-\	.	32c/LLL]	.	.	.	.	.
.	.	(32C/	.	.	.	.	.
.	.	32E/	.	.	.	.	.
.	.	32G/	.	.	.	.	.
.	.	32c/	.	.	.	8gg\	.
.	.	32G/	.	.	.	.	.
.	.	32E/	.	.	.	.	.
.	.	32C/JJJ)	.	.	.	.	.
4BB-/	.	[4c\	.	32ee/LLL]	.	8ee\L	.
.	.	.	.	(32c/	.	.	.
.	.	.	.	32e/	.	.	.
.	.	.	.	32g/	.	.	.
.	.	.	.	32cc/	.	8cc\J)	.
.	.	.	.	32g/	.	.	.
.	.	.	.	32e/	.	.	.
.	.	.	.	32c/JJJ)	.	.	.
=79	=79	=79	=79	=79	=79	=79	=79
4AA/	<	8c\]	<	32r	.	4ccc\	<
.	.	.	.	(32c/LLL	.	.	.
.	.	.	.	32f/	.	.	.
.	.	.	.	32a/	.	.	.
.	.	4C/ 4c/	<	32cc/	.	.	.
.	.	.	.	32a/	.	.	.
.	.	.	.	32f/	.	.	.
.	.	.	.	32c/JJJ)	.	.	.
4AA/	.	.	.	32r	.	4ddd\	.
.	.	.	.	(32c/LLL	.	.	.
.	.	.	.	32f/	.	.	.
.	.	.	.	32a/	.	.	.
.	.	4C/ 4c/	.	32cc/	.	.	.
.	.	.	.	32a/	.	.	.
.	.	.	.	32f/	.	.	.
.	.	.	.	32c/JJJ)	.	.	.
4AA-/	.	.	.	32r	.	4ee-\ 4eee-\	.
.	.	.	.	(32c/LLL	.	.	.
.	.	.	.	32cc/	.	.	.
.	.	.	.	32c/	.	.	.
.	.	8F#/	.	32cc/	.	.	.
.	.	.	.	32c/)	.	.	.
.	.	.	.	32cc/	.	.	.
.	.	.	.	32c/JJJ	.	.	.
=80	=80	=80	=80	=80	=80	=80	=80
(8GG/L	.	8G/L	.	32r	.	[4ee\ [4eee\	.
.	.	.	.	(32c/LLL	.	.	.
.	.	.	.	32e/	.	.	.
.	.	.	.	32g/	.	.	.
8C/J	.	(8G/J	.	32cc/	.	.	.
.	.	.	.	32g/	.	.	.
.	.	.	.	32e/	.	.	.
.	.	.	.	32c/JJJ)	.	.	.
8E\L	.	8c\L	.	32r	.	(32ee\LLL] 32eee\]	.
.	.	.	.	(32c/LLL	.	32ddd#\	.
.	.	.	.	32e/	.	32fff\	.
.	.	.	.	32g/	.	32eee\	.
8G\J)	.	8e\J	.	32cc/	.	32dddn\	.
.	.	.	.	32g/	.	32ccc\	.
.	.	.	.	32e/	.	32bb\	.
.	.	.	.	32c/JJJ)	.	32aa\JJJ)	.
4GG/	.	8fn/L	.	32r	.	(32gg\LLL	.
.	.	.	.	(32B/LLL	.	32gg#\	.
.	.	.	.	32d/	.	32bb\	.
.	.	.	.	32B/	.	32aa\	.
.	.	8Fn/J)	.	32d/	.	32ggn\	.
.	.	.	.	32B/	.	32ff\	.
.	.	.	.	32d/	.	32ee\	.
.	.	.	.	32B/JJJ)	.	32dd\JJJ)	.
=81	=81	=81	=81	=81	=81	=81	=81
4C/	pp	4E/	pp	4c/	pp	4cc\	pp
4r	.	4r	.	4r	.	4r	.
(16F'\LL	.	(16G'/LL	.	(16d'/LL	.	(16b'/LL	.
16F'\	.	16G'/	.	16d'/	.	16b'/	.
16F'\	.	16G'/	.	16c'/	.	16a'/	.
16F'\JJ)	.	16G'/JJ)	.	16B'/JJ)	.	16g'/JJ)	.
=82	=82	=82	=82	=82	=82	=82	=82
4E\	.	4G/	.	4c/	.	4cc\	.
4r	.	4r	.	4r	.	4r	.
(16BB'/LL	.	(16d'\LL	.	(16G'/LL 16f'/	.	(16g'/LL	.
16BB'/	.	16d'\	.	16G'/ 16f'/	.	16g'/	.
16AA'/	.	16c'\	.	16G'/ 16f'/	.	16g'/	.
16GG'/JJ)	.	16B'\JJ)	.	16G'/JJ) 16f'/	.	16g'/JJ)	.
=83	=83	=83	=83	=83	=83	=83	=83
4C/	.	4c\	.	4G/ 4e/	.	4g/	.
4r	.	(16c'/LL	.	4r	.	4r	.
.	.	16c'/	.	.	.	.	.
.	.	16B-'/	.	.	.	.	.
.	.	16A-'/JJ)	.	.	.	.	.
(16C'/LL	<	(16A-'/LL	<	(16c'/LL	<	(16f'/LL	<
16C'/	.	16A-'/	.	16c'/	.	16f'/	.
16C'/	.	16G'/	.	16e'/	.	16g'/	.
16C'/JJ)	.	16F'/JJ)	.	16f'/JJ)	.	16a-'/JJ)	.
=84	=84	=84	=84	=84	=84	=84	=84
8C/	p	8c\	p	8e/	p	8g/	p
8r	.	8r	.	8r	.	8r	.
(16C'/LL	.	4r	.	4r	.	4r	.
16C'/	.	.	.	.	.	.	.
16BB-'/	.	.	.	.	.	.	.
16AA-'/JJ)	.	.	.	.	.	.	.
(16AA-'/LL	<	(16F'/LL	<	16r	<	(16c'/LL	<
16AA-'/	.	16F'/	.	(16c'/LL	.	16c'/	.
16GG'/	.	16E'/	.	16G'/	.	16c'/	.
16FF'/JJ)	.	16F'/JJ)	.	16A-'/JJ)	.	16c'/JJ)	.
=85	=85	=85	=85	=85	=85	=85	=85
8C/	p	8E/	p	8G/	p	8c/	p
8r	.	8r	.	8r	.	8r	.
4r	.	4r	.	4r	.	4r	.
8..CC/L	.	8..E/L	.	8..G/L	.	8..c/L	.
32CC/Jkk	.	32E/Jkk	.	32G/Jkk	.	32c/Jkk	.
=86	=86	=86	=86	=86	=86	=86	=86
2CC;/	.	2E;/	.	2G;/	.	2c;/	.
==	==	==	==	==	==	==	==
*-	*-	*-	*-	*-	*-	*-	*-
!!!ENC: Craig Stuart Sapp
!!!END: 2006/04/06/
